packages/icons/src/assets/raw/outlined/action/SVG/outlined-action-list.svg

<svg xmlns="http://www.w3.org/2000/svg" viewBox="0 0 24 24"><path d="M20 11H4a1 1 0 0 1-1-1V4a1 1 0 0 1 1-1h16a1 1 0 0 1 1 1v6a1 1 0 0 1-1 1zM4 4v6h16V4zm0-.5V4zM20 21H4a1 1 0 0 1-1-1v-6a1 1 0 0 1 1-1h16a1 1 0 0 1 1 1v6a1 1 0 0 1-1 1zM4 14v6h16v-6zm0-.5v.5z"/></svg>

<svg xmlns="http://www.w3.org/2000/svg" viewBox="0 0 24 24">
  <title>Icon Outlined NatIcList</title>
  <g>
    <g style="opacity: 0">
      <rect width="24" height="24"/>
    </g>
    <g>
      <path d="M20,11H4a1,1,0,0,1-1-1V4A1,1,0,0,1,4,3H20a1,1,0,0,1,1,1v6A1,1,0,0,1,20,11ZM4,4v6H20V4Zm0-.5V4H4Z"/>
      <path d="M20,21H4a1,1,0,0,1-1-1V14a1,1,0,0,1,1-1H20a1,1,0,0,1,1,1v6A1,1,0,0,1,20,21ZM4,14v6H20V14Zm0-.5V14H4Z"/>
    </g>
  </g>
</svg>
